packages/ui-icons/svg/Solid/ms-word.svg

<svg viewBox="0 0 1920 1920" version="1.1" xmlns="http://www.w3.org/2000/svg">
    <g stroke="none" stroke-width="1" fill-rule="evenodd">
        <path d="M1185.47059,-0.0112941176 L1185.47059,564.694588 L1750.17647,564.694588 L1750.17647,1919.98871 L169,1919.98871 L169,-0.0112941176 L1185.47059,-0.0112941176 Z M1298.41176,1355.28282 L507.823529,1355.28282 L507.823529,1468.33694 L1298.41176,1468.33694 L1298.41176,1355.28282 Z M1185.47059,1129.40047 L507.823529,1129.40047 L507.823529,1242.34165 L1185.47059,1242.34165 L1185.47059,1129.40047 Z M1411.35294,903.518118 L507.823529,903.518118 L507.823529,1016.45929 L1411.35294,1016.45929 L1411.35294,903.518118 Z M959.701176,338.812235 L507.823529,338.812235 L507.823529,790.689882 L959.701176,790.689882 L959.701176,338.812235 Z"/>
        <path d="M620.764706 677.647059L846.647059 677.647059 846.647059 451.764706 620.764706 451.764706zM1298.40047 451.809882L1733.33694 451.809882 1298.40047 16.8734118z"/>
    </g>
</svg>

<svg viewBox="0 0 1920 1920" xmlns="http://www.w3.org/2000/svg">
    <g fill-rule="evenodd">
        <path d="M1185.47-.011v564.706h564.706v1355.294H169v-1920h1016.47Zm112.942 1355.294H507.824v113.054h790.588v-113.054ZM1185.47 1129.4H507.824v112.942h677.647V1129.4Zm225.882-225.882h-903.53v112.941h903.53V903.52ZM959.7 338.812H507.824V790.69H959.7V338.812Z"/>
        <path d="M620.765 677.647h225.882V451.765H620.765zM1298.4 451.81h434.937L1298.4 16.873z"/>
    </g>
</svg>
